X:480
T:Woodland Revels
M:4/4
L:1/8
Q:1/8=200
K:Em
E3 c B4|E3 c B4|c2 c2 e2 c2|B3 c BAGF|E3 c B4|
E3c B4|A2 A2 B2 ^c2|d4 d4|E3 c B4|E2 Gc B4|c2 c2 e2 c2|
B6 B2|c2 c2 B3 B|c2 c2 B4|B2 Bc BAGF|E4 D4||
G2 Be d4|GB de d4|G2 B2 c2 B2|A2 e2 e4|A3 B c3 B|
A3 B c3 B|A2 c2 B2 A2|G2 e2 d4|G2 Be d4|GB de d4|
G2 B2 c2 B2|A2 e2 e4|e2 c2 e2 c2|d2 B2 d3 d|dc BA GFGA|B2 d2 g2 fe||
d4 d2 ^cd|e2 d2 B2 G2|E G2 E G2 A2|B4 B2 c2|d4 d2 ^cd|
e2 d2 B2 G2|E A2 E A2 B2|A2 F2 E2 D2|d4 d2 ^cd|e2 d2 B2 G2|
EG 2E G2 A2|B6 d2|e3 e f2 e2|d2 B4 d2|e4 f4|g8||
